img/sponsors/logo-8.svg

<svg height="45" viewBox="0 0 198 45" width="198" xmlns="http://www.w3.org/2000/svg"><g fill="#fff" fill-rule="evenodd"><path d="m19.3146103 37.4745269c1.6376258-1.6539013 4.2919447-1.6543049 5.9298902 0 1.6375459 1.6536996 1.6377457 4.3345292 0 5.9890359-1.6375459 1.6539013-4.2920646 1.6541031-5.9298902 0-1.6375459-1.6541032-1.6379455-4.3349328 0-5.9890359zm-3.1140545-15.1216345c1.6379455-1.654305 4.2929437-1.6551121 5.9308892-.0008072 1.6373461 1.6536996 1.6361473 4.3365673-.000999 5.990065l-5.928092 5.987018c-1.6379455 1.6543049-4.2928638 1.6551121-5.9308093.0010089-1.63754591-1.6536995-1.63614732-4.3365471.000999-5.9902466zm2.8173542-21.1122646c1.6376258-1.65390134 4.2923443-1.65430493 5.93009-.00020179 1.6375459 1.65390134 1.6387447 4.33392377-.0001998 5.98923767l-17.789311 17.96692602c-1.63754591 1.6541031-4.29206458 1.6543049-5.92981029.0002018-1.63754591-1.6539215-1.6389445-4.333944 0-5.9892579z"/><path d="m19.3146103 37.4745269c1.6376258-1.6539013 4.2919447-1.6543049 5.9298902 0 1.6375459 1.6536996 1.6377457 4.3345292 0 5.9890359-1.6375459 1.6539013-4.2920646 1.6541031-5.9298902 0-1.6375459-1.6541032-1.6379455-4.3349328 0-5.9890359zm-3.1140545-15.1216345c1.6379455-1.654305 4.2929437-1.6551121 5.9308892-.0008072 1.6373461 1.6536996 1.6361473 4.3365673-.000999 5.990065l-5.928092 5.987018c-1.6379455 1.6543049-4.2928638 1.6551121-5.9308093.0010089-1.63754591-1.6536995-1.63614732-4.3365471.000999-5.9902466zm2.8173542-21.1122646c1.6376258-1.65390134 4.2923443-1.65430493 5.93009-.00020179 1.6375459 1.65390134 1.6387447 4.33392377-.0001998 5.98923767l-17.789311 17.96692602c-1.63754591 1.6541031-4.29206458 1.6543049-5.92981029.0002018-1.63754591-1.6539215-1.6389445-4.333944 0-5.9892579z"/><path d="m195.284343 42.8133834c-1.734048 1.4371749-3.935025 2.1557623-6.60293 2.1557623-1.778604 0-3.631532-.3218609-5.558186-.9655829-1.926854-.643722-3.660902-1.5943722-5.202345-2.8517489l2.934636-4.2215247c2.490084 1.9460987 5.143005 2.919148 7.95916 2.919148.859732 0 1.541443-.17213 2.045334-.5165919.504091-.3440583.756036-.8009193.756036-1.369574 0-.5688565-.348448-1.0929148-1.044944-1.5717713-.696696-.4790583-1.704478-.9282511-3.023746-1.3473767-1.318868-.4191255-2.326849-.7783184-3.023346-1.0777803-.696896-.2994618-1.489895-.7335201-2.378997-1.3023766-1.808173-1.137713-2.71246-2.8216816-2.71246-5.0523094 0-2.2306279.889302-4.0492131 2.668105-5.4565225 1.778404-1.4071076 4.075883-2.1107623 6.892038-2.1107623 2.815956 0 5.632111.9581166 8.448267 2.874148l-2.490085 4.4911412c-2.075104-1.4371749-4.142616-2.1557623-6.202934-2.1557623-2.06012 0-3.090279.5690583-3.090279 1.7063677 0 .628991.326071 1.1229821.978212 1.4821749.652341.3591928 1.734248.7785202 3.245921 1.2575785 1.511873.4790583 2.586388.8457175 3.223944 1.1003811.637156.2542601 1.400385.6509866 2.289887 1.1897758 1.659923 1.0180494 2.490084 2.7171525 2.490084 5.0973094 0 2.380157-.867124 4.2889238-2.601372 5.7258969"/><path d="m159.729857 31.1369529v13.4729597h-6.669863v-24.1611458h6.669863v2.6945516c2.015764-2.0659641 4.283273-3.0987444 6.803128-3.0987444 2.519655 0 4.631721.8979821 6.3362 2.6945516 1.704478 1.7961659 2.556817 4.1912354 2.556817 7.1854506v14.6853364h-6.669863v-13.6525561c0-3.7123991-1.348637-5.5686995-4.046313-5.5686995-1.333852 0-2.497477.4865246-3.490474 1.4595739-.993197.9728476-1.489495 2.4025561-1.489495 4.288722"/><path d="m91.9565146 44.6098722h6.669663v-24.1611659h-6.669663z"/><path d="m72.228442 44.6098318h-6.669663v-24.1612668h6.669663v2.6945516c2.0157639-2.0657623 4.2834732-3.0987444 6.8031281-3.0987444 2.5198547 0 4.6317215.8981839 6.3363996 2.6945516 1.7044783 1.7963677 2.5568174 4.1915583 2.5568174 7.1857735v14.6851345h-6.6698628v-13.6523542c0-3.7126009-1.3488375-5.5689014-4.0463128-5.5689014-1.3340525 0-2.4974773.4865247-3.4904743 1.459574-.9931967.9730494-1.4896952 2.4027579-1.4896952 4.288722z"/><path d="m91.3784985 14.5654709c0-1.1076458.3780181-2.0433633 1.1338547-2.8067489.7560363-.7633857 1.6823007-1.1451794 2.7791927-1.1451794 1.0966922 0 2.0231564.3817937 2.7789929 1.1451794.7558366.7633856 1.1338547 1.6991031 1.1338547 2.8067489 0 1.1078475-.3780181 2.0433632-1.1338547 2.8069506-.7558365.7633857-1.6823007 1.1449776-2.7789929 1.1449776-1.096892 0-2.0231564-.3815919-2.7791927-1.1449776-.7558366-.7635874-1.1338547-1.6991031-1.1338547-2.8069506"/><path d="m54.2216307 14.5654709c0-1.1076458.3780181-2.0433633 1.1338547-2.8067489.7558365-.7633857 1.6823007-1.1451794 2.7789929-1.1451794 1.096892 0 2.0231564.3817937 2.7791927 1.1451794.7558366.7633856 1.1338547 1.6991031 1.1338547 2.8067489 0 1.1078475-.3780181 2.0433632-1.1338547 2.8069506-.7560363.7633857-1.6823007 1.1449776-2.7791927 1.1449776-1.0966922 0-2.0231564-.3815919-2.7789929-1.1449776-.7558366-.7635874-1.1338547-1.6991031-1.1338547-2.8069506"/><path d="m54.7996468 44.6098722h6.669663v-24.1611659h-6.669663z"/><path d="m45.012333 20.6731614h5.570773v4.8501727h-5.570773v19.0864574h-6.714218v-19.0864574h-2.8011705v-4.8501727h2.8011705v-1.4819731c0-2.6346188.792999-4.722982 2.3787972-6.2648879 1.585998-1.5419058 3.5572069-2.3127578 5.9138264-2.3127578 2.3568194 0 4.4984562.8981839 6.4253098 2.6945516l-2.4009747 4.5357175c-.9784117-1.137713-2.0603189-1.7065695-3.2461211-1.7065695-.6817114 0-1.2449425.2471973-1.6896933.7409865-.4445509.4941928-.6669263 1.2200448-.6669263 2.1781614z"/><path d="m140.605774 26.9319955c-.919072-.7783184-2.037942-1.1675785-3.357209-1.1675785-1.319068 0-2.527047.4041929-3.62374 1.2125785-1.096892.8083857-1.734248 1.9013005-1.912068 3.2783408h10.4938c-.14825-1.4369731-.681711-2.5450224-1.600783-3.3233408zm6.452882 14.1776233c-2.697675 2.5748879-5.862079 3.8621301-9.493411 3.8621301s-6.6327-1.1300449-9.004105-3.3903363c-2.371404-2.2604933-3.557207-5.2920404-3.557207-9.0942377 0-3.8023991 1.20798-6.826278 3.62394-9.0716368 2.415959-2.2455605 5.269078-3.3683408 8.559554-3.3683408 3.290276 0 6.084254 1.0031166 8.381534 3.0089462 2.297479 2.0060314 3.446119 4.7605157 3.446119 8.2632511v3.5929372h-17.430194c.20739 1.3171077.889102 2.3950897 2.045134 3.2333408 1.156232.838453 2.460315 1.2573767 3.913048 1.2573767 2.341834 0 4.268488-.7934529 5.780561-2.3801569z"/><path d="m103.621332 26.0394821v-5.5687198h19.297907v5.2543251l-11.605277 13.2931615h12.272403v5.6136995h-20.80998v-5.5686995l11.294392-13.0237668z"/></g></svg>

<?xml version="1.0" encoding="UTF-8"?>
<svg width="198px" height="45px" viewBox="0 0 198 45" version="1.1" xmlns="http://www.w3.org/2000/svg" xmlns:xlink="http://www.w3.org/1999/xlink">
    <!-- Generator: Sketch 43.2 (39069) - http://www.bohemiancoding.com/sketch -->
    <title>logo-finizens</title>
    <desc>Created with Sketch.</desc>
    <defs></defs>
    <g id="Page-1" stroke="none" stroke-width="1" fill="none" fill-rule="evenodd">
        <g id="logo-finizens" fill="#FFFFFF">
            <g id="Page-1">
                <path d="M19.3146103,37.4745269 C20.9522361,35.8206256 23.606555,35.820222 25.2445005,37.4745269 C26.8820464,39.1282265 26.8822462,41.8090561 25.2445005,43.4635628 C23.6069546,45.1174641 20.9524359,45.1176659 19.3146103,43.4635628 C17.6770644,41.8094596 17.6766648,39.12863 19.3146103,37.4745269 L19.3146103,37.4745269 Z M16.2005558,22.3528924 C17.8385013,20.6985874 20.4934995,20.6977803 22.131445,22.3520852 C23.7687911,24.0057848 23.7675923,26.6886525 22.130446,28.3421502 L16.202354,34.3291682 C14.5644085,35.9834731 11.9094902,35.9842803 10.2715447,34.3301771 C8.63399879,32.6764776 8.63539738,29.99363 10.2725437,28.3399305 L16.2005558,22.3528924 Z M19.01791,1.2406278 C20.6555358,-0.413273543 23.3102543,-0.41367713 24.948,1.24042601 C26.5855459,2.89432735 26.5867447,5.57434978 24.9478002,7.22966368 L7.1584892,25.1965897 C5.52094329,26.8506928 2.86642462,26.8508946 1.22867891,25.1967915 C-0.408867003,23.54287 -0.41026559,20.8628475 1.22867891,19.2075336 L19.01791,1.2406278 Z" id="Fill-1"></path>
                <path d="M19.3146103,37.4745269 C20.9522361,35.8206256 23.606555,35.820222 25.2445005,37.4745269 C26.8820464,39.1282265 26.8822462,41.8090561 25.2445005,43.4635628 C23.6069546,45.1174641 20.9524359,45.1176659 19.3146103,43.4635628 C17.6770644,41.8094596 17.6766648,39.12863 19.3146103,37.4745269 L19.3146103,37.4745269 Z M16.2005558,22.3528924 C17.8385013,20.6985874 20.4934995,20.6977803 22.131445,22.3520852 C23.7687911,24.0057848 23.7675923,26.6886525 22.130446,28.3421502 L16.202354,34.3291682 C14.5644085,35.9834731 11.9094902,35.9842803 10.2715447,34.3301771 C8.63399879,32.6764776 8.63539738,29.99363 10.2725437,28.3399305 L16.2005558,22.3528924 Z M19.01791,1.2406278 C20.6555358,-0.413273543 23.3102543,-0.41367713 24.948,1.24042601 C26.5855459,2.89432735 26.5867447,5.57434978 24.9478002,7.22966368 L7.1584892,25.1965897 C5.52094329,26.8506928 2.86642462,26.8508946 1.22867891,25.1967915 C-0.408867003,23.54287 -0.41026559,20.8628475 1.22867891,19.2075336 L19.01791,1.2406278 Z" id="Fill-2"></path>
                <path d="M195.284343,42.8133834 C193.550295,44.2505583 191.349318,44.9691457 188.681413,44.9691457 C186.902809,44.9691457 185.049881,44.6472848 183.123227,44.0035628 C181.196373,43.3598408 179.462325,42.4091906 177.920882,41.1518139 L180.855518,36.9302892 C183.345602,38.8763879 185.998523,39.8494372 188.814678,39.8494372 C189.67441,39.8494372 190.356121,39.6773072 190.860012,39.3328453 C191.364103,38.988787 191.616048,38.531926 191.616048,37.9632713 C191.616048,37.3944148 191.2676,36.8703565 190.571104,36.3915 C189.874408,35.9124417 188.866626,35.4632489 187.547358,35.0441233 C186.22849,34.6249978 185.220509,34.2658049 184.524012,33.966343 C183.827116,33.6668812 183.034117,33.2328229 182.145015,32.6639664 C180.336842,31.5262534 179.432555,29.8422848 179.432555,27.611657 C179.432555,25.3810291 180.321857,23.5624439 182.10066,22.1551345 C183.879064,20.7480269 186.176543,20.0443722 188.992698,20.0443722 C191.808654,20.0443722 194.624809,21.0024888 197.440965,22.9185202 L194.95088,27.4096614 C192.875776,25.9724865 190.808264,25.2538991 188.747946,25.2538991 C186.687826,25.2538991 185.657667,25.8229574 185.657667,26.9602668 C185.657667,27.5892578 185.983738,28.0832489 186.635879,28.4424417 C187.28822,28.8016345 188.370127,29.2209619 189.8818,29.7000202 C191.393673,30.1790785 192.468188,30.5457377 193.105744,30.8004013 C193.7429,31.0546614 194.506129,31.4513879 195.395631,31.9901771 C197.055554,33.0082265 197.885715,34.7073296 197.885715,37.0874865 C197.885715,39.4676435 197.018591,41.3764103 195.284343,42.8133834" id="Fill-3"></path>
                <path d="M159.729857,31.1369529 L159.729857,44.6099126 L153.059994,44.6099126 L153.059994,20.4487668 L159.729857,20.4487668 L159.729857,23.1433184 C161.745621,21.0773543 164.01313,20.044574 166.532985,20.044574 C169.05264,20.044574 171.164706,20.9425561 172.869185,22.7391256 C174.573663,24.5352915 175.426002,26.930361 175.426002,29.9245762 L175.426002,44.6099126 L168.756139,44.6099126 L168.756139,30.9573565 C168.756139,27.2449574 167.407502,25.388657 164.709826,25.388657 C163.375974,25.388657 162.212349,25.8751816 161.219352,26.8482309 C160.226155,27.8210785 159.729857,29.250787 159.729857,31.1369529" id="Fill-4"></path>
                <polygon id="Fill-5" points="91.9565146 44.6098722 98.6261776 44.6098722 98.6261776 20.4487063 91.9565146 20.4487063"></polygon>
                <path d="M72.228442,44.6098318 L65.558779,44.6098318 L65.558779,20.448565 L72.228442,20.448565 L72.228442,23.1431166 C74.2442059,21.0773543 76.5119152,20.0443722 79.0315701,20.0443722 C81.5514248,20.0443722 83.6632916,20.9425561 85.3679697,22.7389238 C87.072448,24.5352915 87.9247871,26.9304821 87.9247871,29.9246973 L87.9247871,44.6098318 L81.2549243,44.6098318 L81.2549243,30.9574776 C81.2549243,27.2448767 79.9060868,25.3885762 77.2086115,25.3885762 C75.874559,25.3885762 74.7111342,25.8751009 73.7181372,26.8481502 C72.7249405,27.8211996 72.228442,29.2509081 72.228442,31.1368722 L72.228442,44.6098318 Z" id="Fill-6"></path>
                <path d="M91.3784985,14.5654709 C91.3784985,13.4578251 91.7565166,12.5221076 92.5123532,11.758722 C93.2683895,10.9953363 94.1946539,10.6135426 95.2915459,10.6135426 C96.3882381,10.6135426 97.3147023,10.9953363 98.0705388,11.758722 C98.8263754,12.5221076 99.2043935,13.4578251 99.2043935,14.5654709 C99.2043935,15.6733184 98.8263754,16.6088341 98.0705388,17.3724215 C97.3147023,18.1358072 96.3882381,18.5173991 95.2915459,18.5173991 C94.1946539,18.5173991 93.2683895,18.1358072 92.5123532,17.3724215 C91.7565166,16.6088341 91.3784985,15.6733184 91.3784985,14.5654709" id="Fill-7"></path>
                <path d="M54.2216307,14.5654709 C54.2216307,13.4578251 54.5996488,12.5221076 55.3554854,11.758722 C56.1113219,10.9953363 57.0377861,10.6135426 58.1344783,10.6135426 C59.2313703,10.6135426 60.1576347,10.9953363 60.913671,11.758722 C61.6695076,12.5221076 62.0475257,13.4578251 62.0475257,14.5654709 C62.0475257,15.6733184 61.6695076,16.6088341 60.913671,17.3724215 C60.1576347,18.1358072 59.2313703,18.5173991 58.1344783,18.5173991 C57.0377861,18.5173991 56.1113219,18.1358072 55.3554854,17.3724215 C54.5996488,16.6088341 54.2216307,15.6733184 54.2216307,14.5654709" id="Fill-8"></path>
                <polygon id="Fill-9" points="54.7996468 44.6098722 61.4693098 44.6098722 61.4693098 20.4487063 54.7996468 20.4487063"></polygon>
                <path d="M45.012333,20.6731614 L50.583106,20.6731614 L50.583106,25.5233341 L45.012333,25.5233341 L45.012333,44.6097915 L38.298115,44.6097915 L38.298115,25.5233341 L35.4969445,25.5233341 L35.4969445,20.6731614 L38.298115,20.6731614 L38.298115,19.1911883 C38.298115,16.5565695 39.091114,14.4682063 40.6769122,12.9263004 C42.2629102,11.3843946 44.2341191,10.6135426 46.5907386,10.6135426 C48.947558,10.6135426 51.0891948,11.5117265 53.0160484,13.3080942 L50.6150737,17.8438117 C49.636662,16.7060987 48.5547548,16.1372422 47.3689526,16.1372422 C46.6872412,16.1372422 46.1240101,16.3844395 45.6792593,16.8782287 C45.2347084,17.3724215 45.012333,18.0982735 45.012333,19.0563901 L45.012333,20.6731614 Z" id="Fill-10"></path>
                <path d="M140.605774,26.9319955 C139.686702,26.1536771 138.567832,25.764417 137.248565,25.764417 C135.929497,25.764417 134.721518,26.1686099 133.624825,26.9769955 C132.527933,27.7853812 131.890577,28.878296 131.712757,30.2553363 L142.206557,30.2553363 C142.058307,28.8183632 141.524846,27.7103139 140.605774,26.9319955 L140.605774,26.9319955 Z M147.058656,41.1096188 C144.360981,43.6845067 141.196577,44.9717489 137.565245,44.9717489 C133.933913,44.9717489 130.932545,43.841704 128.56114,41.5814126 C126.189736,39.3209193 125.003933,36.2893722 125.003933,32.4871749 C125.003933,28.6847758 126.211913,25.6608969 128.627873,23.4155381 C131.043832,21.1699776 133.896951,20.0471973 137.187427,20.0471973 C140.477703,20.0471973 143.271681,21.0503139 145.568961,23.0561435 C147.86644,25.0621749 149.01508,27.8166592 149.01508,31.3193946 L149.01508,34.9123318 L131.584886,34.9123318 C131.792276,36.2294395 132.473988,37.3074215 133.63002,38.1456726 C134.786252,38.9841256 136.090335,39.4030493 137.543068,39.4030493 C139.884902,39.4030493 141.811556,38.6095964 143.323629,37.0228924 L147.058656,41.1096188 Z" id="Fill-11"></path>
                <polygon id="Fill-12" points="103.621332 26.0394821 103.621332 20.4707623 122.919239 20.4707623 122.919239 25.7250874 111.313962 39.0182489 123.586365 39.0182489 123.586365 44.6319484 102.776385 44.6319484 102.776385 39.0632489 114.070777 26.0394821"></polygon>
            </g>
        </g>
    </g>
</svg>
